X:7952
T:Vinne vinne n\ostegarn
C:anon.
O:Norway
R:Nursery rhyme
F:http://abc.musicaviva.com/tunes/norway/vinne-vinne-nostegarn/vinne-vinne-nostegarn-1.abc
M:2/4
L:1/8
K:G
dd dd|ee ee|de dc|[1BAG2:|[2BA HGc||
BB AA|G2Gc|BB AA|G2Gc|BB AA|GGG2|]
W:
W:
W:  From Musica Viva - http://www.musicaviva.com
W:  the Internet center for free sheet music downloads.

